X:680
T:Kadrilj
T:efter Alfred Petersson, Nättraby, Blekinge (SvL, Band 18, nr 288)
O:Nättraby, Blekinge
S:Svenska Låtar Blekinge nr 288
R:Kadrilj
C:Alfred Petersson
M:2/4
L:1/16
Q:1/4=100
Z:Konverterad till abc-format av  Olle Paulsson 05-01-03
K:F
(AB)|=Bcdc A2f2|c2a2 f2c2|(Ac=Bc) (dcBc)|c3B G2E2|
(Bc).B.A B2g2|e2b2 g2e2|(fe)fa c2de|f4 z2:|
|:(ef)|g^fga bgeg|=fefa c2(eg)|(bc)cc (ac)cc|(g^f)ga g2AB|
=Bcdc A2=f2|c2a2 f2c2|(=Bc)eg (bc)de|f4z2:|
L:1/8
|:(A/2B/2)|(3 (cA)A (3(af)f|(3(fe)d (3(ce)g|(3(bc)c (3(cd)e|(3faf (3cAB|
(3(cA)A (3(af)f|(3(fe)d (3(ce)g|(3(bc)c (3(cd)e|f2 z:|
L:1/16
|:c2|(BG)EG .A.c(fe)|(dc)BA G2B2|(Ac).f.e (dc).B.A|G(c=B)A G2(A_B)|
(3(c2A2)A2 (3(a2f2)f2|(3(f2e2)d2 (3(c2e2)g2|(3(b2c2)c2 (3(c2d2)e2|f4 z2:|
(:musicend:)

obs dalsegeno-tecken
(:music:)
